src/lib/packages/icons/src/assets/filled/chat-dots-times.svg

<svg width="24" height="24" viewBox="0 0 24 24" fill="none" xmlns="http://www.w3.org/2000/svg">
<path d="M10.6211 3.10301C7.32013 3.59401 4.50113 5.96401 3.46513 9.13701C2.69813 11.486 2.93502 13.823 3.83402 15.757C4.04402 16.197 4.04408 16.707 3.89408 17.177L3.054 19.676C2.79 20.461 3.53902 21.21 4.32402 20.946L6.82402 20.106C7.29401 19.956 7.80396 19.956 8.24296 20.166C9.38296 20.696 10.663 20.996 12.002 20.996C12.505 20.996 13.001 20.957 13.48 20.878C13.658 20.849 13.759 20.667 13.709 20.494C13.543 19.908 13.471 19.283 13.513 18.63C13.689 15.93 15.9331 13.685 18.6341 13.509C19.2871 13.467 19.9111 13.539 20.4981 13.705C20.6711 13.754 20.8521 13.653 20.8821 13.476C20.9611 12.997 21 12.501 21 11.998C21 6.57597 16.2021 2.27301 10.6211 3.10301ZM8.02006 13C7.46806 13 7.01493 12.552 7.01493 12C7.01493 11.448 7.45805 11 8.01005 11H8.02006C8.57306 11 9.02006 11.448 9.02006 12C9.02006 12.552 8.57206 13 8.02006 13ZM12.0201 13C11.4681 13 11.0149 12.552 11.0149 12C11.0149 11.448 11.4581 11 12.0101 11H12.0201C12.5731 11 13.0201 11.448 13.0201 12C13.0201 12.552 12.5721 13 12.0201 13ZM16.0201 13C15.4681 13 15.0149 12.552 15.0149 12C15.0149 11.448 15.4581 11 16.0101 11H16.0201C16.5731 11 17.0201 11.448 17.0201 12C17.0201 12.552 16.5721 13 16.0201 13ZM21.5301 20.47C21.8231 20.763 21.8231 21.238 21.5301 21.531C21.3841 21.677 21.192 21.751 21 21.751C20.808 21.751 20.616 21.678 20.47 21.531L19 20.061L17.5301 21.531C17.3841 21.677 17.192 21.751 17 21.751C16.808 21.751 16.616 21.678 16.47 21.531C16.177 21.238 16.177 20.763 16.47 20.47L17.94 19L16.47 17.53C16.177 17.237 16.177 16.762 16.47 16.469C16.763 16.176 17.238 16.176 17.531 16.469L19.001 17.939L20.471 16.469C20.764 16.176 21.239 16.176 21.532 16.469C21.825 16.762 21.825 17.237 21.532 17.53L20.0621 19L21.5301 20.47Z" fill="currentColor"/>
</svg>

<svg xmlns="http://www.w3.org/2000/svg" width="24" height="24" fill="none"><path fill="currentColor" d="M10.621 3.103c-3.3.491-6.12 2.861-7.156 6.034-.767 2.349-.53 4.686.369 6.62.21.44.21.95.06 1.42l-.84 2.499a1.003 1.003 0 0 0 1.27 1.27l2.5-.84c.47-.15.98-.15 1.419.06 1.14.53 2.42.83 3.759.83a9.1 9.1 0 0 0 1.478-.118c.178-.029.279-.211.229-.384a5.514 5.514 0 0 1-.196-1.864c.176-2.7 2.42-4.945 5.121-5.121a5.516 5.516 0 0 1 1.864.196c.173.049.354-.052.384-.229A9.1 9.1 0 0 0 21 11.998c0-5.422-4.798-9.725-10.379-8.895ZM8.021 13a1.005 1.005 0 0 1-1.006-1c0-.552.443-1 .995-1h.01a1 1 0 1 1 0 2Zm4 0a1.005 1.005 0 0 1-1.006-1c0-.552.443-1 .995-1h.01a1 1 0 1 1 0 2Zm4 0a1.005 1.005 0 0 1-1.006-1c0-.552.443-1 .995-1h.01a1 1 0 1 1 0 2Zm5.51 7.47a.75.75 0 0 1-1.061 1.061L19 20.061l-1.47 1.47a.748.748 0 0 1-1.06 0 .75.75 0 0 1 0-1.061L17.94 19l-1.47-1.47a.75.75 0 1 1 1.061-1.061l1.47 1.47 1.47-1.47a.75.75 0 1 1 1.061 1.061L20.062 19l1.468 1.47Z"/></svg>
